X: 1
T: Crowley's
R: reel
M: 4/4
L: 1/8
K: Dmaj
~f2ed edBc|dBBA BAFA|~B3d AFDF|GEED EDB,e|
fd~d2 ec~c2|dBBA BAFA|BcdB AGFD|EFGE FDFA||
~d3c dAFA|BGBd cA~A2|BGAF GEFD|EFGE FDFA|
d2dc dAFA|BGBd cA~A2|BdAd GdFd|EFGE FDD2||


Tune 1180	Setting 29701

